Yosa-Max/places/scalable/folder-development.svg

<?xml version="1.0" encoding="UTF-8"?>
<svg id="svg5453" version="1.1" viewBox="0 0 64 64" xmlns="http://www.w3.org/2000/svg">
 <defs id="defs5455">
  <linearGradient id="linearGradient833" x1="32.010437" x2="31.962496" y1="57.89262" y2="15.119835" gradientTransform="translate(0,-3.8146973e-6)" gradientUnits="userSpaceOnUse">
   <stop id="stop827" style="stop-color:#20bcfa" offset="0"/>
   <stop id="stop829" style="stop-color:#46c7fc" offset="1"/>
  </linearGradient>
  <style id="current-color-scheme" type="text/css">.ColorScheme-Text {
        color:#4d4d4d;
      }</style>
 </defs>
 <path id="folderTab-3" d="m4 6c-0.55122 0.05512-1 0.446-1 1v42h58v-38c0-1-1-1-1-1h-27c-2-4-6-4-6-4h-22z" style="fill-rule:evenodd;fill:#209efa"/>
 <path id="folderPaper-6" d="m7 13h50v32h-50z" style="color-rendering:auto;color:#000000;fill:#fffbec;image-rendering:auto;isolation:auto;mix-blend-mode:normal;shape-rendering:auto;solid-color:#000000;text-decoration-color:#000000;text-decoration-line:none;text-decoration-style:solid;white-space:normal"/>
 <path id="folderFront-2" d="m39 14.999996s-4 0-6 4h-31s-0.1319813 0.01691-0.2890625 0.05859c-0.045956 0.01404-0.091922 0.02277-0.1347656 0.04297-0.2742277 0.109838-0.5761719 0.34321-0.5761719 0.89844v37c0 0.55397 0.44603 1 1 1h60c0.55397 0 1-0.44603 1-1v-41c0-0.55397-0.44603-1-1-1h-1z" style="fill-rule:evenodd;fill:url(#linearGradient833)"/>
 <path id="path9330-3" d="m29.22659 48-0.244638-2.897599a8.7201446 8.6434392 0 0 1-2.548495-1.461041l-2.658864 1.241504-2.774593-4.764889 2.411523-1.659537a8.7201446 8.6434392 0 0 1-0.133173-1.458389 8.7201446 8.6434392 0 0 1 0.126998-1.464089l-2.405174-1.653254 2.774595-4.763639 2.650765 1.236953a8.7201446 8.6434392 0 0 1 2.55469-1.451819l0.245744-2.904201h5.549182l0.24463 2.897599a8.7201446 8.6434392 0 0 1 2.54851 1.461043l2.65695-1.240036 2.77459 4.763639-2.41231 1.660481a8.7201446 8.6434392 0 0 1 0.13476 1.456808 8.7201446 8.6434392 0 0 1-0.12843 1.46467l2.40615 1.654364-2.77461 4.763616-2.65077-1.236942a8.7201446 8.6434392 0 0 1-2.55421 1.450525l-0.24416 2.904201h-5.549174zm2.77458-7.857671a3.1709617 3.1430688 0 0 0 3.17098-3.143069 3.1709617 3.1430688 0 0 0-3.17098-3.143068 3.1709617 3.1430688 0 0 0-3.170946 3.143068 3.1709617 3.1430688 0 0 0 3.170946 3.143069z" style="enable-background:new;fill:#f9f9f9;stroke-width:1.4332498"/>
</svg>

<?xml version="1.0" encoding="UTF-8" standalone="no"?>
<svg
   xmlns:dc="http://purl.org/dc/elements/1.1/"
   xmlns:cc="http://creativecommons.org/ns#"
   xmlns:rdf="http://www.w3.org/1999/02/22-rdf-syntax-ns#"
   xmlns:svg="http://www.w3.org/2000/svg"
   xmlns="http://www.w3.org/2000/svg"
   xmlns:xlink="http://www.w3.org/1999/xlink"
   xmlns:sodipodi="http://sodipodi.sourceforge.net/DTD/sodipodi-0.dtd"
   xmlns:inkscape="http://www.inkscape.org/namespaces/inkscape"
   viewBox="0 0 64 64"
   version="1.1"
   id="svg5453"
   height="64"
   width="64"
   sodipodi:docname="folder-development.svg"
   inkscape:version="0.92.4 (unknown)">
  <sodipodi:namedview
     pagecolor="#ffffff"
     bordercolor="#666666"
     borderopacity="1"
     objecttolerance="10"
     gridtolerance="10"
     guidetolerance="10"
     inkscape:pageopacity="0"
     inkscape:pageshadow="2"
     inkscape:window-width="1366"
     inkscape:window-height="711"
     id="namedview14"
     showgrid="false"
     inkscape:zoom="3.6875"
     inkscape:cx="32"
     inkscape:cy="32"
     inkscape:window-x="0"
     inkscape:window-y="0"
     inkscape:window-maximized="1"
     inkscape:current-layer="svg5453" />
  <defs
     id="defs5455">
    <linearGradient
       id="linearGradient831">
      <stop
         style="stop-color:#20bcfa;stop-opacity:1;"
         offset="0"
         id="stop827" />
      <stop
         style="stop-color:#46c7fc;stop-opacity:1"
         offset="1"
         id="stop829" />
    </linearGradient>
    <linearGradient
       xlink:href="#linearGradient831"
       id="linearGradient833"
       x1="32.010437"
       y1="57.89262"
       x2="31.962496"
       y2="15.119835"
       gradientUnits="userSpaceOnUse"
       gradientTransform="translate(0,-3.8146973e-6)" />
    <style
       type="text/css"
       id="current-color-scheme">
      .ColorScheme-Text {
        color:#4d4d4d;
      }
      </style>
  </defs>
  <metadata
     id="metadata5458">
    <rdf:RDF>
      <cc:Work
         rdf:about="">
        <dc:format>image/svg+xml</dc:format>
        <dc:type
           rdf:resource="http://purl.org/dc/dcmitype/StillImage" />
        <dc:title />
      </cc:Work>
    </rdf:RDF>
  </metadata>
  <path
     style="fill:#209efa;fill-opacity:1;fill-rule:evenodd;stroke:none;stroke-width:1px;stroke-linecap:butt;stroke-linejoin:miter;stroke-opacity:1"
     d="M 4,6 C 3.44878,6.05512 3,6.446 3,7 V 9 49 H 61 V 14 13 11 c 0,-1 -1,-1 -1,-1 H 58 37 33 C 31,6 27,6 27,6 H 5 Z"
     id="folderTab-3" />
  <path
     style="color:#000000;text-decoration:none;text-decoration-line:none;text-decoration-style:solid;text-decoration-color:#000000;white-space:normal;clip-rule:nonzero;display:inline;overflow:visible;visibility:visible;opacity:1;isolation:auto;mix-blend-mode:normal;color-interpolation:sRGB;color-interpolation-filters:linearRGB;solid-color:#000000;solid-opacity:1;fill:#fffbec;fill-opacity:1;fill-rule:nonzero;stroke:none;stroke-width:1;stroke-linecap:butt;stroke-linejoin:miter;stroke-miterlimit:4;stroke-dasharray:none;stroke-dashoffset:0;stroke-opacity:1;color-rendering:auto;image-rendering:auto;shape-rendering:auto;text-rendering:auto;enable-background:accumulate"
     d="M 7,13 H 57 V 45 H 7 Z"
     id="folderPaper-6" />
  <path
     style="fill:url(#linearGradient833);fill-opacity:1;fill-rule:evenodd;stroke:none;stroke-width:1px;stroke-linecap:butt;stroke-linejoin:miter;stroke-opacity:1"
     d="m 39,14.999996 c 0,0 -4,0 -6,4 H 29 4 2 c 0,0 -0.1319813,0.01691 -0.2890625,0.05859 -0.045956,0.01404 -0.091922,0.02277 -0.1347656,0.04297 C 1.3019442,19.211394 1,19.444766 1,19.999996 v 2 1 34 c 0,0.55397 0.44603,1 1,1 h 60 c 0.55397,0 1,-0.44603 1,-1 v -39 -2 c 0,-0.55397 -0.44603,-1 -1,-1 h -1 z"
     id="folderFront-2" />
  <path
     style="opacity:1;fill:#e3f9f9;fill-opacity:1;stroke-width:1.43324983;enable-background:new"
     d="M 29.22659,48 28.981952,45.102401 A 8.7201446,8.6434392 0 0 1 26.433457,43.64136 L 23.774593,44.882864 21,40.117975 23.411523,38.458438 A 8.7201446,8.6434392 0 0 1 23.27835,37.000049 8.7201446,8.6434392 0 0 1 23.405348,35.53596 l -2.405174,-1.653254 2.774595,-4.763639 2.650765,1.236953 a 8.7201446,8.6434392 0 0 1 2.55469,-1.451819 L 29.225968,26 h 5.549182 l 0.24463,2.897599 a 8.7201446,8.6434392 0 0 1 2.54851,1.461043 l 2.65695,-1.240036 2.77459,4.763639 -2.41231,1.660481 a 8.7201446,8.6434392 0 0 1 0.13476,1.456808 8.7201446,8.6434392 0 0 1 -0.12843,1.46467 L 43,40.118568 40.22539,44.882184 37.57462,43.645242 a 8.7201446,8.6434392 0 0 1 -2.55421,1.450525 l -0.24416,2.904201 h -5.549174 z m 2.77458,-7.857671 a 3.1709617,3.1430688 0 0 0 3.17098,-3.143069 3.1709617,3.1430688 0 0 0 -3.17098,-3.143068 3.1709617,3.1430688 0 0 0 -3.170946,3.143068 3.1709617,3.1430688 0 0 0 3.170946,3.143069 z"
     id="path9330-3"
     inkscape:connector-curvature="0" />
</svg>
